Numix-Square/48x48/apps/gscan2pdf.svg

<svg xmlns="http://www.w3.org/2000/svg" xmlns:xlink="http://www.w3.org/1999/xlink" width="48" viewBox="0 0 13.546667 13.546667" height="48">
 <defs>
  <linearGradient id="0">
   <stop stop-color="#df1818"/>
   <stop offset="1" stop-color="#c01616"/>
  </linearGradient>
  <linearGradient xlink:href="#0" id="1" gradientUnits="userSpaceOnUse" gradientTransform="matrix(0.28222223,0,0,0.28222223,-13.544847,-296.99976)" y1="1050.36" x2="0" y2="1006.36"/>
 </defs>
 <g transform="matrix(0.28222223,0,0,0.28222223,0,-283.45334)">
  <path d="M 5.1875,1 C 2.8707723,1 1,2.8707723 1,5.1875 l 0,37.625 C 1,45.129228 2.8707723,47 5.1875,47 l 37.625,0 C 45.129228,47 47,45.129228 47,42.8125 L 47,5.1875 C 47,2.8707723 45.129228,1 42.8125,1 L 5.1875,1 z m 0.1875,0.25 37.25,0 c 2.291546,0 4.125,1.8334541 4.125,4.125 l 0,37.25 c 0,2.291546 -1.833454,4.125 -4.125,4.125 l -37.25,0 C 3.0834541,46.75 1.25,44.916546 1.25,42.625 l 0,-37.25 C 1.25,3.0834541 3.0834541,1.25 5.375,1.25 z" transform="translate(0,1004.3622)" opacity="0.05"/>
  <path d="M 5.375,1.25 C 3.0834541,1.25 1.25,3.0834541 1.25,5.375 l 0,37.25 c 0,2.291546 1.8334541,4.125 4.125,4.125 l 37.25,0 c 2.291546,0 4.125,-1.833454 4.125,-4.125 l 0,-37.25 C 46.75,3.0834541 44.916546,1.25 42.625,1.25 l -37.25,0 z m 0.21875,0.25 36.8125,0 C 44.672614,1.5 46.5,3.3273859 46.5,5.59375 l 0,36.8125 C 46.5,44.672614 44.672614,46.5 42.40625,46.5 l -36.8125,0 C 3.3273859,46.5 1.5,44.672614 1.5,42.40625 l 0,-36.8125 C 1.5,3.3273859 3.3273859,1.5 5.59375,1.5 z" transform="translate(0,1004.3622)" opacity="0.1"/>
  <path d="M 5.59375,1.5 C 3.3273859,1.5 1.5,3.3273859 1.5,5.59375 l 0,36.8125 C 1.5,44.672614 3.3273859,46.5 5.59375,46.5 l 36.8125,0 C 44.672614,46.5 46.5,44.672614 46.5,42.40625 l 0,-36.8125 C 46.5,3.3273859 44.672614,1.5 42.40625,1.5 l -36.8125,0 z m 0.09375,0.125 36.625,0 c 2.253773,0 4.0625,1.8087269 4.0625,4.0625 l 0,36.625 c 0,2.253773 -1.808727,4.0625 -4.0625,4.0625 l -36.625,0 c -2.2537731,0 -4.0625,-1.808727 -4.0625,-4.0625 l 0,-36.625 C 1.625,3.4337269 3.4337269,1.625 5.6875,1.625 z" transform="translate(0,1004.3622)" opacity="0.2"/>
  <path d="M 5.6875,1.625 C 3.4337269,1.625 1.625,3.4337269 1.625,5.6875 l 0,36.625 c 0,2.253773 1.8087269,4.0625 4.0625,4.0625 l 36.625,0 c 2.253773,0 4.0625,-1.808727 4.0625,-4.0625 l 0,-36.625 c 0,-2.2537731 -1.808727,-4.0625 -4.0625,-4.0625 l -36.625,0 z m 0.09375,0.125 36.4375,0 c 2.241182,0 4.03125,1.7900679 4.03125,4.03125 l 0,36.4375 c 0,2.241182 -1.790068,4.03125 -4.03125,4.03125 l -36.4375,0 C 3.5400679,46.25 1.75,44.459932 1.75,42.21875 l 0,-36.4375 C 1.75,3.5400679 3.5400679,1.75 5.78125,1.75 z" transform="translate(0,1004.3622)" opacity="0.3"/>
  <path d="M 5.78125,1.75 C 3.5400679,1.75 1.75,3.5400679 1.75,5.78125 l 0,36.4375 c 0,2.241182 1.7900679,4.03125 4.03125,4.03125 l 36.4375,0 c 2.241182,0 4.03125,-1.790068 4.03125,-4.03125 l 0,-36.4375 C 46.25,3.5400679 44.459932,1.75 42.21875,1.75 l -36.4375,0 z m 0.125,0.125 36.1875,0 c 2.228591,0 4.03125,1.802659 4.03125,4.03125 l 0,36.1875 c 0,2.228591 -1.802659,4.03125 -4.03125,4.03125 l -36.1875,0 C 3.677659,46.125 1.875,44.322341 1.875,42.09375 l 0,-36.1875 C 1.875,3.677659 3.677659,1.875 5.90625,1.875 z" transform="translate(0,1004.3622)" opacity="0.4"/>
  <rect rx="4.02" y="1006.24" x="1.875" height="44.25" width="44.25" opacity="0.5"/>
 </g>
 <rect rx="1.129" y="-12.982" x="-12.981" height="12.418" width="12.418" transform="scale(-1,-1)" fill="url(#1)"/>
 <path d="M 16 12 C 15.484375 12 15 12.484375 15 13 L 15 35 C 15 35.484373 15.515625 36 16 36 L 32 36 C 32.484375 36 33 35.484373 33 35 L 33 18.5 L 26.5 12 L 16 12 z M 23.1875 20 C 23.282715 19.982909 23.369141 20.025392 23.46875 20.125 C 23.607812 20.261389 23.660964 20.502948 23.6875 20.65625 C 23.658691 20.565918 23.61914 20.455079 23.5625 20.40625 C 23.488281 20.261718 22.96875 19.949219 23.0625 21.09375 C 23.099165 21.562419 23.157321 22.233182 23.28125 22.9375 C 23.568714 21.838634 23.75 21 23.75 21 C 23.75 21 23.853696 22.110699 23.46875 23.84375 C 23.685748 24.597743 24.034883 25.363216 24.59375 26.03125 C 25.08109 26.613785 25.726645 27.098757 26.375 27.46875 C 26.746926 27.432265 27.072678 27.395393 27.75 27.375 C 29.566406 27.320313 29.792971 27.542969 29.9375 27.8125 C 30.105467 28.070313 29.84375 28.3125 29.84375 28.3125 C 29.84375 28.3125 29.859374 28.132812 29.65625 27.96875 C 29.474083 27.821609 28.754937 27.660038 26.96875 27.78125 C 27.889184 28.221687 28.758334 28.440115 29.09375 28.46875 C 29.738278 28.523441 29.78125 28.375 29.78125 28.375 C 29.78125 28.375 29.5 28.910156 28.25 28.65625 C 27.615171 28.526896 26.850277 28.222871 26.15625 27.84375 C 23.930538 28.08887 21.65625 28.8125 21.65625 28.8125 C 21.65625 28.8125 22.484374 28.121094 24.15625 27.8125 C 24.872198 27.678364 25.256363 27.59406 25.65625 27.53125 C 25.192486 27.231838 24.773189 26.917679 24.46875 26.5625 C 24.027262 26.051839 23.643511 25.237972 23.34375 24.4375 C 23.038482 25.572917 22.518582 26.92028 21.65625 28.40625 C 19.21875 32.609374 18.503907 32.054687 18.25 31.90625 C 17.992188 31.761719 17.664063 31.289063 18.75 30.34375 C 19.832032 29.394531 20.25 29.40625 20.25 29.40625 C 20.25 29.40625 19.261719 30.011719 18.875 30.59375 C 18.492188 31.175781 18.191406 31.523438 18.28125 31.6875 C 18.375 31.851563 19.476562 31.019531 19.9375 30.3125 C 20.664062 29.183594 22.042968 27.09375 22.6875 25.09375 C 22.837534 24.624435 22.968353 24.13698 23.09375 23.6875 C 22.952854 23.235497 22.83374 22.820557 22.78125 22.53125 C 22.617188 21.601563 22.707031 20.628905 22.90625 20.28125 C 23.007812 20.109375 23.092285 20.017091 23.1875 20 z " transform="scale(0.28222223,0.28222223)" fill="#f9f9f9"/>
 <path d="m 7.478889,4.9388892 0.00882,0.00882 0.022049,-0.00882 z m 0.2822223,0.2822222 1.5522222,1.5522223 0,-1.5522223 z" fill-opacity="0.196"/>
 <path d="m 7.478889,3.3866669 1.8344445,1.8344445 -1.5522222,0 c -0.1367014,0 -0.2822223,-0.1455208 -0.2822223,-0.2822222 z" fill-opacity="0.392"/>
</svg>

<svg viewBox="0 0 48 48" xmlns:xlink="http://www.w3.org/1999/xlink"><defs><linearGradient id="linearGradient3764" x1="1" x2="47" gradientUnits="userSpaceOnUse" gradientTransform="translate(-47.997785,0.00221467)"><stop stop-color="#bf1515" stop-opacity="1"/><stop offset="1" stop-color="#d01717" stop-opacity="1"/></linearGradient><clipPath id="clipPath-956979547"><g transform="translate(0,-1004.3622)"><rect rx="4" y="1005.36" x="1" height="46" width="46" fill="#1890d0"/></g></clipPath><clipPath id="clipPath-976073442"><g transform="translate(0,-1004.3622)"><rect rx="4" y="1005.36" x="1" height="46" width="46" fill="#1890d0"/></g></clipPath></defs><g><g transform="translate(0,-1004.3622)"><path d="m 5 1006.36 c -2.216 0 -4 1.784 -4 4 l 0 37.25 c 0 2.216 1.784 4 4 4 l 38 0 c 2.216 0 4 -1.784 4 -4 l 0 -37.25 c 0 -2.216 -1.784 -4 -4 -4 l -38 0 z m -4 41.5 0 0.5 c 0 2.216 1.784 4 4 4 l 38 0 c 2.216 0 4 -1.784 4 -4 l 0 -0.5 c 0 2.216 -1.784 4 -4 4 l -38 0 c -2.216 0 -4 -1.784 -4 -4 z" opacity="0.02"/><path d="m 1 1047.61 0 0.25 c 0 2.216 1.784 4 4 4 l 38 0 c 2.216 0 4 -1.784 4 -4 l 0 -0.25 c 0 2.216 -1.784 4 -4 4 l -38 0 c -2.216 0 -4 -1.784 -4 -4 z" opacity="0.05"/><rect width="46" height="46" x="1" y="1005.61" rx="4" opacity="0.1"/></g></g><g><rect width="46" height="46" x="-46.998" y="1" rx="4" transform="matrix(0,-1,1,0,0,0)" fill="url(#linearGradient3764)" fill-opacity="1"/></g><g/><g><g clip-path="url(#clipPath-956979547)"><g opacity="0.1"><!-- color: #d01717 --><g><path d="m 16 12 c -0.516 0 -1 0.484 -1 1 l 0 22 c 0 0.484 0.516 1 1 1 l 16 0 c 0.484 0 1 -0.516 1 -1 l 0 -16.5 l -6.5 -6.5 m -3.313 8 c 0.094 -0.016 0.184 0.023 0.281 0.125 c 0.141 0.137 0.191 0.379 0.219 0.531 c -0.027 -0.09 -0.066 -0.203 -0.125 -0.25 c -0.074 -0.145 -0.594 -0.457 -0.5 0.688 c 0.039 0.469 0.094 1.141 0.219 1.844 c 0.289 -1.098 0.469 -1.938 0.469 -1.938 c 0 0 0.105 1.109 -0.281 2.844 c 0.219 0.754 0.566 1.52 1.125 2.188 c 0.488 0.582 1.133 1.07 1.781 1.438 c 0.371 -0.035 0.699 -0.07 1.375 -0.094 c 1.816 -0.055 2.043 0.168 2.188 0.438 c 0.168 0.258 -0.094 0.5 -0.094 0.5 c 0 0 0.016 -0.18 -0.188 -0.344 c -0.18 -0.145 -0.898 -0.309 -2.688 -0.188 c 0.922 0.441 1.789 0.66 2.125 0.688 c 0.645 0.055 0.688 -0.094 0.688 -0.094 c 0 0 -0.281 0.535 -1.531 0.281 c -0.633 -0.129 -1.398 -0.434 -2.094 -0.813 c -2.227 0.246 -4.5 0.969 -4.5 0.969 c 0 0 0.828 -0.691 2.5 -1 c 0.715 -0.133 1.102 -0.219 1.5 -0.281 c -0.465 -0.297 -0.883 -0.613 -1.188 -0.969 c -0.441 -0.512 -0.824 -1.324 -1.125 -2.125 c -0.305 1.137 -0.824 2.484 -1.688 3.969 c -2.438 4.203 -3.152 3.648 -3.406 3.5 c -0.258 -0.145 -0.586 -0.617 0.5 -1.563 c 1.082 -0.949 1.5 -0.938 1.5 -0.938 c 0 0 -0.988 0.605 -1.375 1.188 c -0.383 0.582 -0.684 0.93 -0.594 1.094 c 0.094 0.164 1.195 -0.668 1.656 -1.375 c 0.727 -1.129 2.102 -3.219 2.75 -5.219 c 0.148 -0.469 0.281 -0.957 0.406 -1.406 c -0.148 -0.453 -0.27 -0.867 -0.316 -1.156 c -0.164 -0.93 -0.074 -1.902 0.125 -2.25 c 0.105 -0.172 0.188 -0.262 0.281 -0.281 m 0 0" stroke="none" fill-rule="nonzero" fill-opacity="1" fill="#000"/><path d="m 26.5 17.5 l 0.031 0.031 l 0.078 -0.031 m 0.891 1 l 5.5 5.5 l 0 -5.5 m -5.5 0" stroke="none" fill-rule="nonzero" fill-opacity="0.196" fill="#000" id="SVGCleanerId_0"/><path d="m 26.5 12 l 6.5 6.5 l -5.5 0 c -0.484 0 -1 -0.52 -1 -1 m 0 -5.5" stroke="none" fill-rule="nonzero" fill-opacity="0.392" fill="#000" id="SVGCleanerId_1"/></g></g></g></g><g><g clip-path="url(#clipPath-976073442)"><g transform="translate(0,-1)"><!-- color: #d01717 --><g><path d="m 16 12 c -0.516 0 -1 0.484 -1 1 l 0 22 c 0 0.484 0.516 1 1 1 l 16 0 c 0.484 0 1 -0.516 1 -1 l 0 -16.5 l -6.5 -6.5 m -3.313 8 c 0.094 -0.016 0.184 0.023 0.281 0.125 c 0.141 0.137 0.191 0.379 0.219 0.531 c -0.027 -0.09 -0.066 -0.203 -0.125 -0.25 c -0.074 -0.145 -0.594 -0.457 -0.5 0.688 c 0.039 0.469 0.094 1.141 0.219 1.844 c 0.289 -1.098 0.469 -1.938 0.469 -1.938 c 0 0 0.105 1.109 -0.281 2.844 c 0.219 0.754 0.566 1.52 1.125 2.188 c 0.488 0.582 1.133 1.07 1.781 1.438 c 0.371 -0.035 0.699 -0.07 1.375 -0.094 c 1.816 -0.055 2.043 0.168 2.188 0.438 c 0.168 0.258 -0.094 0.5 -0.094 0.5 c 0 0 0.016 -0.18 -0.188 -0.344 c -0.18 -0.145 -0.898 -0.309 -2.688 -0.188 c 0.922 0.441 1.789 0.66 2.125 0.688 c 0.645 0.055 0.688 -0.094 0.688 -0.094 c 0 0 -0.281 0.535 -1.531 0.281 c -0.633 -0.129 -1.398 -0.434 -2.094 -0.813 c -2.227 0.246 -4.5 0.969 -4.5 0.969 c 0 0 0.828 -0.691 2.5 -1 c 0.715 -0.133 1.102 -0.219 1.5 -0.281 c -0.465 -0.297 -0.883 -0.613 -1.188 -0.969 c -0.441 -0.512 -0.824 -1.324 -1.125 -2.125 c -0.305 1.137 -0.824 2.484 -1.688 3.969 c -2.438 4.203 -3.152 3.648 -3.406 3.5 c -0.258 -0.145 -0.586 -0.617 0.5 -1.563 c 1.082 -0.949 1.5 -0.938 1.5 -0.938 c 0 0 -0.988 0.605 -1.375 1.188 c -0.383 0.582 -0.684 0.93 -0.594 1.094 c 0.094 0.164 1.195 -0.668 1.656 -1.375 c 0.727 -1.129 2.102 -3.219 2.75 -5.219 c 0.148 -0.469 0.281 -0.957 0.406 -1.406 c -0.148 -0.453 -0.27 -0.867 -0.316 -1.156 c -0.164 -0.93 -0.074 -1.902 0.125 -2.25 c 0.105 -0.172 0.188 -0.262 0.281 -0.281 m 0 0" fill="#f9f9f9" stroke="none" fill-rule="nonzero" fill-opacity="1"/><use xlink:href="#SVGCleanerId_0"/><use xlink:href="#SVGCleanerId_1"/></g></g></g></g><g><g transform="translate(0,-1004.3622)"><path d="m 1 1043.36 0 4 c 0 2.216 1.784 4 4 4 l 38 0 c 2.216 0 4 -1.784 4 -4 l 0 -4 c 0 2.216 -1.784 4 -4 4 l -38 0 c -2.216 0 -4 -1.784 -4 -4 z" opacity="0.1"/></g></g></svg>
